!!!COM: Bach, Johann Sebastian
!!!CDT: 1685/3//-1750/7/28/
!!!OTL@@DE: Ach wie fluechtig, ach wie nichtig
!!!AGN: 4-Part Chorale
!!!OPR: Cantata, BWV 26
!!!SCT: BH 048
!!!SCT: BWV 26
**harm	**root	**kern	**kern	**kern	**kern
!	!	!bass	!tenor	!alto	!soprno
*	*Iorgan	*Iorgan	*Iorgan	*Iorgan	*Iorgan
*	*	*clefF4	*clefF4	*clefG2	*clefG2
*M4/4	*M4/4	*M4/4	*M4/4	*M4/4	*M4/4
*met(c)	*met(c)	*met(c)	*met(c)	*met(c)	*met(c)
*MM60	*MM60	*MM60	*MM60	*MM60	*MM60
*k[b-e-a-d-g-]	*k[b-e-a-d-g-]	*k[b-e-a-d-g-]	*k[b-e-a-d-g-]	*k[b-e-a-d-g-]	*k[b-e-a-d-g-]
*b-:	*b-:	*b-:	*b-:	*b-:	*b-:
=1-	=1-	=1-	=1-	=1-	=1-
i	4AA	4B-	4d-	4f	4b-
Vb	4EE	4A	4c	4f	4cc
i	4AA	4B-	4B-	4f	4dd-
i;	4AA;	4BB-;	4B-;	4f;	4dd-;
=2	=2	=2	=2	=2	=2
i	4AA	4B-	4B-	4f	4dd-
V/III	4GG	4A-	4c	4a-	4ee-
I/III	4CC	4d-	4d-	4a-	4ff
I/III;	4CC;	4D-;	4d-;	4a-;	4ff;
=3	=3	=3	=3	=3	=3
I/III	4CC	8d-	8d-	4a-	4ff
.	.	8c	8e-	.	.
i	4AA	8B-	8d-	[4dd-	4ff
.	.	8A-	8c	.	.
V7b/-VII	8DD	8G	8B-	8dd-]	4ee-
viio	8GG#	8A	8c	4cc	.
i	4AA	4B-	8d-	.	4dd-
.	.	.	8f	8b-	.
=4	=4	=4	=4	=4	=4
iv7	4DD	4E-	4g-	4b-	4.cc
V	4EE	4F	8f	4a	.
.	.	.	8e-	.	8b-
I;	2AA;	2BB-;	2d;	2f;	2b-;
=5	=5	=5	=5	=5	=5
I	4AA	8B-	8d	4b-	4ff
.	.	8c	8e-	.	.
Ib	4AA	8d	8f	4b-	4ff
.	.	8B-	8d	.	.
iv	4DD	8e-	4e-	4b-	4gg-
.	.	8d-	.	.	.
-II	4BB-	8c-	4e-	4cc-	4gg-
.	.	8B-	.	.	.
!!linebreak: 2
=6	=6	=6	=6	=6	=6
viiD7/VI	4EE	8A-	4e-	4cc-	4ff
.	.	8F	.	.	.
V/IV	4AA	4B-	4d	8b-	4ff
.	.	.	.	8a-	.
IV	4DD	4E-	4e-	8a-	4ff
.	.	.	.	8f	.
IV;	4DD;	4E-;	4B-;	4g;	4ee-;
*D-:	*D-:	*D-:	*D-:	*D-:	*D-:
=7	=7	=7	=7	=7	=7
V	4GG	8A-	8c	4a-	4ee-
.	.	8B-	8d-	.	.
Vb	4GG	8c	8e-	4a-	4ee-
.	.	8A-	8c	.	.
I	4CC	8d-	4d-	4a-	4ff
.	.	8c	.	.	.
vi	4AA	8B-	4d-	4b-	4ff
.	.	8A-	.	.	.
=8	=8	=8	=8	=8	=8
ii7b	4DD	8G-	4d-	4b-	4ee-
.	.	8E-	.	.	.
V	4GG	4A-	4c	8a-	4ee-
.	.	.	.	8g-	.
I	4CC	4D-	4d-	8g-	4dd-
.	.	.	.	8e-	.
I;	4CC;	4D-;	4A-;	4f;	4dd-;
*b-:	*b-:	*b-:	*b-:	*b-:	*b-:
=9	=9	=9	=9	=9	=9
VI	4FF	4G-	4B-	4g-	4dd-
iv	4DD	8F	4B-	4g-	4ee-
.	.	8E-	.	.	.
Vb	4EE	8A	4c	4f	4ff
.	.	8F	.	.	.
I	4AA	4B-	4B-	4f	8ee-
.	.	.	.	.	8dd-
=10	=10	=10	=10	=10	=10
V7b/V	4BB	4E	4B-	4g	4cc
V	4EE	4F	4A	8f	4cc
.	.	.	.	8e-	.
I	4AA	4B-	4B-	8e-	4b-
.	.	.	.	8c	.
I;	4AA;	4BB-;	4F;	4d;	4b-;
====	====	====	====	====	====
*-	*-	*-	*-	*-	*-
!!chor2scor: -l 2 -s 0.6 -o %b.pmx
!!!YEC: Copyright 1994, David Huron
!!!YEC: Changes/Additions 2001 by Craig Stuart Sapp
!!!YEN: United States of America
!!!SMA: 371 Bach Chorales, edited by Ludwig Erk, C.F. Peters
!!!PDT: 1850, 1865
